content/blogs/regnskap/hva-er-lagerlokasjon/lagerlokasjon-teknologi.svg

<svg xmlns="http://www.w3.org/2000/svg" width="800" height="400"><defs><linearGradient id="a" x1="0%" x2="100%" y1="0%" y2="100%"><stop offset="0%" style="stop-color:#f8f9fa;stop-opacity:1"/><stop offset="100%" style="stop-color:#e9ecef;stop-opacity:1"/></linearGradient></defs><path fill="url(#a)" d="M0 0h800v400H0z"/><text x="400" y="30" fill="#212529" font-family="Arial, sans-serif" font-size="24" font-weight="bold" text-anchor="middle">Teknologisk Infrastruktur for Lagerlokasjonsstyring</text><rect width="180" height="140" x="50" y="60" fill="#fff" stroke="#007bff" stroke-width="2" rx="10"/><text x="140" y="85" fill="#007bff" font-family="Arial, sans-serif" font-size="16" font-weight="bold" text-anchor="middle">WMS</text><text x="140" y="100" fill="#007bff" font-family="Arial, sans-serif" font-size="12" text-anchor="middle">Warehouse Management</text><rect width="140" height="20" x="70" y="110" fill="#e3f2fd" stroke="#2196f3" rx="3"/><text x="140" y="123" fill="#1976d2" font-family="Arial, sans-serif" font-size="10" text-anchor="middle">Ordrehåndtering</text><rect width="140" height="20" x="70" y="135" fill="#e3f2fd" stroke="#2196f3" rx="3"/><text x="140" y="148" fill="#1976d2" font-family="Arial, sans-serif" font-size="10" text-anchor="middle">Lageroptimalisering</text><rect width="140" height="20" x="70" y="160" fill="#e3f2fd" stroke="#2196f3" rx="3"/><text x="140" y="173" fill="#1976d2" font-family="Arial, sans-serif" font-size="10" text-anchor="middle">Rapportering</text><rect width="180" height="140" x="250" y="60" fill="#fff" stroke="#28a745" stroke-width="2" rx="10"/><text x="340" y="85" fill="#28a745" font-family="Arial, sans-serif" font-size="16" font-weight="bold" text-anchor="middle">Automatisering</text><g transform="translate(340 120)"><rect width="60" height="16" x="-30" y="-8" fill="#4caf50" rx="3"/><rect width="15" height="40" x="-35" y="-20" fill="#4caf50" rx="3"/><rect width="15" height="40" x="20" y="-20" fill="#4caf50" rx="3"/><circle r="12" fill="#2e7d32"/><text y="5" fill="#fff" font-family="Arial, sans-serif" font-size="10" font-weight="bold" text-anchor="middle">AUTO</text></g><text x="340" y="160" fill="#6c757d" font-family="Arial, sans-serif" font-size="10" text-anchor="middle">• AS/RS systemer</text><text x="340" y="175" fill="#6c757d" font-family="Arial, sans-serif" font-size="10" text-anchor="middle">• Robotikk</text><text x="340" y="190" fill="#6c757d" font-family="Arial, sans-serif" font-size="10" text-anchor="middle">• Transportbånd</text><rect width="180" height="140" x="450" y="60" fill="#fff" stroke="#ffc107" stroke-width="2" rx="10"/><text x="540" y="85" fill="#f57c00" font-family="Arial, sans-serif" font-size="16" font-weight="bold" text-anchor="middle">IoT &amp; Sensorer</text><g transform="translate(540 120)"><circle r="15" fill="#ffc107" stroke="#f57c00" stroke-width="2"/><text y="5" fill="#fff" font-family="Arial, sans-serif" font-size="8" font-weight="bold" text-anchor="middle">HUB</text><circle cx="-40" cy="-20" r="8" fill="#ff9800" stroke="#f57c00"/><text x="-40" y="-16" fill="#fff" font-family="Arial, sans-serif" font-size="6" text-anchor="middle">T°</text><path stroke="#f57c00" d="m-32-12 17 4"/><circle cx="40" cy="-20" r="8" fill="#ff9800" stroke="#f57c00"/><text x="40" y="-16" fill="#fff" font-family="Arial, sans-serif" font-size="6" text-anchor="middle">H%</text><path stroke="#f57c00" d="M32-12 15-8"/><circle cx="-40" cy="20" r="8" fill="#ff9800" stroke="#f57c00"/><text x="-40" y="24" fill="#fff" font-family="Arial, sans-serif" font-size="6" text-anchor="middle">M</text><path stroke="#f57c00" d="m-32 12 17-4"/><circle cx="40" cy="20" r="8" fill="#ff9800" stroke="#f57c00"/><text x="40" y="24" fill="#fff" font-family="Arial, sans-serif" font-size="6" text-anchor="middle">L</text><path stroke="#f57c00" d="M32 12 15 8"/></g><text x="540" y="170" fill="#6c757d" font-family="Arial, sans-serif" font-size="10" text-anchor="middle">Sanntidsdata</text><text x="540" y="185" fill="#6c757d" font-family="Arial, sans-serif" font-size="10" text-anchor="middle">Miljøovervåking</text><rect width="130" height="140" x="650" y="60" fill="#fff" stroke="#9c27b0" stroke-width="2" rx="10"/><text x="715" y="85" fill="#9c27b0" font-family="Arial, sans-serif" font-size="16" font-weight="bold" text-anchor="middle">RFID/Skanning</text><g stroke="#9c27b0" stroke-width="2" transform="translate(715 120)"><rect width="50" height="30" x="-25" y="-15" fill="#e1bee7" rx="5"/><path fill="none" d="M-15-5Q0-15 15-5m-30 5Q0-10 15 0m-30 5Q0-5 15 5"/></g><g stroke="#9c27b0" transform="translate(715 160)"><rect width="40" height="16" x="-20" y="-8" fill="#ba68c8" rx="3"/><path d="M-15 0h30m-25-3h20m-20 6h20"/></g><text x="715" y="185" fill="#6c757d" font-family="Arial, sans-serif" font-size="10" text-anchor="middle">Automatisk ID</text><rect width="730" height="60" x="50" y="220" fill="#fff" stroke="#6c757d" stroke-width="2" rx="10"/><text x="415" y="240" fill="#495057" font-family="Arial, sans-serif" font-size="16" font-weight="bold" text-anchor="middle">Integrasjonslag</text><path stroke="#007bff" stroke-width="3" d="M140 200v20"/><path stroke="#28a745" stroke-width="3" d="M340 200v20"/><path stroke="#ffc107" stroke-width="3" d="M540 200v20"/><path stroke="#9c27b0" stroke-width="3" d="M715 200v20"/><rect width="40" height="20" x="120" y="245" fill="#e9ecef" stroke="#6c757d" rx="3"/><text x="140" y="258" fill="#495057" font-family="Arial, sans-serif" font-size="8" text-anchor="middle">API</text><rect width="40" height="20" x="320" y="245" fill="#e9ecef" stroke="#6c757d" rx="3"/><text x="340" y="258" fill="#495057" font-family="Arial, sans-serif" font-size="8" text-anchor="middle">API</text><rect width="40" height="20" x="520" y="245" fill="#e9ecef" stroke="#6c757d" rx="3"/><text x="540" y="258" fill="#495057" font-family="Arial, sans-serif" font-size="8" text-anchor="middle">API</text><rect width="40" height="20" x="695" y="245" fill="#e9ecef" stroke="#6c757d" rx="3"/><text x="715" y="258" fill="#495057" font-family="Arial, sans-serif" font-size="8" text-anchor="middle">API</text><rect width="400" height="80" x="200" y="300" fill="#fff" stroke="#dc3545" stroke-width="2" rx="10"/><text x="400" y="325" fill="#dc3545" font-family="Arial, sans-serif" font-size="18" font-weight="bold" text-anchor="middle">ERP-system Integration</text><path stroke="#6c757d" stroke-width="4" d="M415 280v20"/><rect width="80" height="25" x="220" y="340" fill="#ffebee" stroke="#dc3545" rx="3"/><text x="260" y="356" fill="#dc3545" font-family="Arial, sans-serif" font-size="10" text-anchor="middle">Regnskap</text><rect width="80" height="25" x="320" y="340" fill="#ffebee" stroke="#dc3545" rx="3"/><text x="360" y="356" fill="#dc3545" font-family="Arial, sans-serif" font-size="10" text-anchor="middle">Innkjøp</text><rect width="80" height="25" x="420" y="340" fill="#ffebee" stroke="#dc3545" rx="3"/><text x="460" y="356" fill="#dc3545" font-family="Arial, sans-serif" font-size="10" text-anchor="middle">Salg</text><rect width="80" height="25" x="520" y="340" fill="#ffebee" stroke="#dc3545" rx="3"/><text x="560" y="356" fill="#dc3545" font-family="Arial, sans-serif" font-size="10" text-anchor="middle">Produksjon</text><defs><marker id="b" markerHeight="7" markerWidth="10" orient="auto" refX="9" refY="3.5"><path fill="#495057" d="m0 0 10 3.5L0 7z"/></marker></defs><path fill="none" stroke="#495057" stroke-width="2" marker-end="url(#b)" d="M100 250q50 40 100 90"/><path fill="none" stroke="#495057" stroke-width="2" marker-end="url(#b)" d="M700 250q-50 40-100 90"/><text x="50" y="395" fill="#495057" font-family="Arial, sans-serif" font-size="12" font-weight="bold">Teknologisk infrastruktur sikrer sømløs dataflyt og optimal lagerstyring</text></svg>

<svg width="800" height="400" xmlns="http://www.w3.org/2000/svg">
  <defs>
    <linearGradient id="bgGradient" x1="0%" y1="0%" x2="100%" y2="100%">
      <stop offset="0%" style="stop-color:#f8f9fa;stop-opacity:1" />
      <stop offset="100%" style="stop-color:#e9ecef;stop-opacity:1" />
    </linearGradient>
  </defs>
  

  <rect width="800" height="400" fill="url(#bgGradient)"/>
  

  <text x="400" y="30" text-anchor="middle" font-family="Arial, sans-serif" font-size="24" font-weight="bold" fill="#212529">Teknologisk Infrastruktur for Lagerlokasjonsstyring</text>
  

  <g>
    <rect x="50" y="60" width="180" height="140" fill="white" stroke="#007bff" stroke-width="2" rx="10"/>
    <text x="140" y="85" text-anchor="middle" font-family="Arial, sans-serif" font-size="16" font-weight="bold" fill="#007bff">WMS</text>
    <text x="140" y="100" text-anchor="middle" font-family="Arial, sans-serif" font-size="12" fill="#007bff">Warehouse Management</text>
    

    <rect x="70" y="110" width="140" height="20" fill="#e3f2fd" stroke="#2196f3" stroke-width="1" rx="3"/>
    <text x="140" y="123" text-anchor="middle" font-family="Arial, sans-serif" font-size="10" fill="#1976d2">Ordrehåndtering</text>
    
    <rect x="70" y="135" width="140" height="20" fill="#e3f2fd" stroke="#2196f3" stroke-width="1" rx="3"/>
    <text x="140" y="148" text-anchor="middle" font-family="Arial, sans-serif" font-size="10" fill="#1976d2">Lageroptimalisering</text>
    
    <rect x="70" y="160" width="140" height="20" fill="#e3f2fd" stroke="#2196f3" stroke-width="1" rx="3"/>
    <text x="140" y="173" text-anchor="middle" font-family="Arial, sans-serif" font-size="10" fill="#1976d2">Rapportering</text>
  </g>
  

  <g>
    <rect x="250" y="60" width="180" height="140" fill="white" stroke="#28a745" stroke-width="2" rx="10"/>
    <text x="340" y="85" text-anchor="middle" font-family="Arial, sans-serif" font-size="16" font-weight="bold" fill="#28a745">Automatisering</text>
    

    <g transform="translate(340, 120)">
      <rect x="-30" y="-8" width="60" height="16" fill="#4caf50" rx="3"/>
      <rect x="-35" y="-20" width="15" height="40" fill="#4caf50" rx="3"/>
      <rect x="20" y="-20" width="15" height="40" fill="#4caf50" rx="3"/>
      <circle cx="0" cy="0" r="12" fill="#2e7d32"/>
      <text x="0" y="5" text-anchor="middle" font-family="Arial, sans-serif" font-size="10" font-weight="bold" fill="white">AUTO</text>
    </g>
    

    <text x="340" y="160" text-anchor="middle" font-family="Arial, sans-serif" font-size="10" fill="#6c757d">• AS/RS systemer</text>
    <text x="340" y="175" text-anchor="middle" font-family="Arial, sans-serif" font-size="10" fill="#6c757d">• Robotikk</text>
    <text x="340" y="190" text-anchor="middle" font-family="Arial, sans-serif" font-size="10" fill="#6c757d">• Transportbånd</text>
  </g>
  

  <g>
    <rect x="450" y="60" width="180" height="140" fill="white" stroke="#ffc107" stroke-width="2" rx="10"/>
    <text x="540" y="85" text-anchor="middle" font-family="Arial, sans-serif" font-size="16" font-weight="bold" fill="#f57c00">IoT &amp; Sensorer</text>
    

    <g transform="translate(540, 120)">

      <circle cx="0" cy="0" r="15" fill="#ffc107" stroke="#f57c00" stroke-width="2"/>
      <text x="0" y="5" text-anchor="middle" font-family="Arial, sans-serif" font-size="8" font-weight="bold" fill="white">HUB</text>
      

      <circle cx="-40" cy="-20" r="8" fill="#ff9800" stroke="#f57c00" stroke-width="1"/>
      <text x="-40" y="-16" text-anchor="middle" font-family="Arial, sans-serif" font-size="6" fill="white">T°</text>
      <line x1="-32" y1="-12" x2="-15" y2="-8" stroke="#f57c00" stroke-width="1"/>
      
      <circle cx="40" cy="-20" r="8" fill="#ff9800" stroke="#f57c00" stroke-width="1"/>
      <text x="40" y="-16" text-anchor="middle" font-family="Arial, sans-serif" font-size="6" fill="white">H%</text>
      <line x1="32" y1="-12" x2="15" y2="-8" stroke="#f57c00" stroke-width="1"/>
      
      <circle cx="-40" cy="20" r="8" fill="#ff9800" stroke="#f57c00" stroke-width="1"/>
      <text x="-40" y="24" text-anchor="middle" font-family="Arial, sans-serif" font-size="6" fill="white">M</text>
      <line x1="-32" y1="12" x2="-15" y2="8" stroke="#f57c00" stroke-width="1"/>
      
      <circle cx="40" cy="20" r="8" fill="#ff9800" stroke="#f57c00" stroke-width="1"/>
      <text x="40" y="24" text-anchor="middle" font-family="Arial, sans-serif" font-size="6" fill="white">L</text>
      <line x1="32" y1="12" x2="15" y2="8" stroke="#f57c00" stroke-width="1"/>
    </g>
    

    <text x="540" y="170" text-anchor="middle" font-family="Arial, sans-serif" font-size="10" fill="#6c757d">Sanntidsdata</text>
    <text x="540" y="185" text-anchor="middle" font-family="Arial, sans-serif" font-size="10" fill="#6c757d">Miljøovervåking</text>
  </g>
  

  <g>
    <rect x="650" y="60" width="130" height="140" fill="white" stroke="#9c27b0" stroke-width="2" rx="10"/>
    <text x="715" y="85" text-anchor="middle" font-family="Arial, sans-serif" font-size="16" font-weight="bold" fill="#9c27b0">RFID/Skanning</text>
    

    <g transform="translate(715, 120)">
      <rect x="-25" y="-15" width="50" height="30" fill="#e1bee7" stroke="#9c27b0" stroke-width="2" rx="5"/>
      <path d="M-15,-5 Q0,-15 15,-5 M-15,0 Q0,-10 15,0 M-15,5 Q0,-5 15,5" stroke="#9c27b0" stroke-width="2" fill="none"/>
    </g>
    

    <g transform="translate(715, 160)">
      <rect x="-20" y="-8" width="40" height="16" fill="#ba68c8" stroke="#9c27b0" stroke-width="1" rx="3"/>
      <path d="M-15,0 L15,0 M-10,-3 L10,-3 M-10,3 L10,3" stroke="#9c27b0" stroke-width="1"/>
    </g>
    
    <text x="715" y="185" text-anchor="middle" font-family="Arial, sans-serif" font-size="10" fill="#6c757d">Automatisk ID</text>
  </g>
  

  <g>
    <rect x="50" y="220" width="730" height="60" fill="white" stroke="#6c757d" stroke-width="2" rx="10"/>
    <text x="415" y="240" text-anchor="middle" font-family="Arial, sans-serif" font-size="16" font-weight="bold" fill="#495057">Integrasjonslag</text>
    

    <line x1="140" y1="200" x2="140" y2="220" stroke="#007bff" stroke-width="3"/>
    <line x1="340" y1="200" x2="340" y2="220" stroke="#28a745" stroke-width="3"/>
    <line x1="540" y1="200" x2="540" y2="220" stroke="#ffc107" stroke-width="3"/>
    <line x1="715" y1="200" x2="715" y2="220" stroke="#9c27b0" stroke-width="3"/>
    

    <rect x="120" y="245" width="40" height="20" fill="#e9ecef" stroke="#6c757d" stroke-width="1" rx="3"/>
    <text x="140" y="258" text-anchor="middle" font-family="Arial, sans-serif" font-size="8" fill="#495057">API</text>
    
    <rect x="320" y="245" width="40" height="20" fill="#e9ecef" stroke="#6c757d" stroke-width="1" rx="3"/>
    <text x="340" y="258" text-anchor="middle" font-family="Arial, sans-serif" font-size="8" fill="#495057">API</text>
    
    <rect x="520" y="245" width="40" height="20" fill="#e9ecef" stroke="#6c757d" stroke-width="1" rx="3"/>
    <text x="540" y="258" text-anchor="middle" font-family="Arial, sans-serif" font-size="8" fill="#495057">API</text>
    
    <rect x="695" y="245" width="40" height="20" fill="#e9ecef" stroke="#6c757d" stroke-width="1" rx="3"/>
    <text x="715" y="258" text-anchor="middle" font-family="Arial, sans-serif" font-size="8" fill="#495057">API</text>
  </g>
  

  <g>
    <rect x="200" y="300" width="400" height="80" fill="white" stroke="#dc3545" stroke-width="2" rx="10"/>
    <text x="400" y="325" text-anchor="middle" font-family="Arial, sans-serif" font-size="18" font-weight="bold" fill="#dc3545">ERP-system Integration</text>
    

    <line x1="415" y1="280" x2="415" y2="300" stroke="#6c757d" stroke-width="4"/>
    

    <rect x="220" y="340" width="80" height="25" fill="#ffebee" stroke="#dc3545" stroke-width="1" rx="3"/>
    <text x="260" y="356" text-anchor="middle" font-family="Arial, sans-serif" font-size="10" fill="#dc3545">Regnskap</text>
    
    <rect x="320" y="340" width="80" height="25" fill="#ffebee" stroke="#dc3545" stroke-width="1" rx="3"/>
    <text x="360" y="356" text-anchor="middle" font-family="Arial, sans-serif" font-size="10" fill="#dc3545">Innkjøp</text>
    
    <rect x="420" y="340" width="80" height="25" fill="#ffebee" stroke="#dc3545" stroke-width="1" rx="3"/>
    <text x="460" y="356" text-anchor="middle" font-family="Arial, sans-serif" font-size="10" fill="#dc3545">Salg</text>
    
    <rect x="520" y="340" width="80" height="25" fill="#ffebee" stroke="#dc3545" stroke-width="1" rx="3"/>
    <text x="560" y="356" text-anchor="middle" font-family="Arial, sans-serif" font-size="10" fill="#dc3545">Produksjon</text>
  </g>
  

  <defs>
    <marker id="arrowhead" markerWidth="10" markerHeight="7" refX="9" refY="3.5" orient="auto">
      <polygon points="0 0, 10 3.5, 0 7" fill="#495057" />
    </marker>
  </defs>
  

  <path d="M 100 250 Q 150 290 200 340" fill="none" stroke="#495057" stroke-width="2" marker-end="url(#arrowhead)"/>
  <path d="M 700 250 Q 650 290 600 340" fill="none" stroke="#495057" stroke-width="2" marker-end="url(#arrowhead)"/>
  
  <text x="50" y="395" font-family="Arial, sans-serif" font-size="12" font-weight="bold" fill="#495057">Teknologisk infrastruktur sikrer sømløs dataflyt og optimal lagerstyring</text>
</svg>
